docs/images/icons/Linkedin.svg

<svg width="20.000000" height="20.000000" viewBox="0 0 20 20" fill="none" xmlns="http://www.w3.org/2000/svg" xmlns:xlink="http://www.w3.org/1999/xlink">
	<desc>
			Created with Pixso.
	</desc>
	<defs/>
	<path id="Vector" d="M5.78328 4.1665C5.78307 4.6084 5.60725 5.03223 5.29454 5.34473C4.98183 5.65723 4.55782 5.83252 4.11578 5.83252C3.67375 5.83203 3.24992 5.65625 2.93752 5.34375C2.62511 5.03076 2.44974 4.60693 2.44995 4.16504C2.45016 3.72266 2.62598 3.29883 2.93869 2.98682C3.25142 2.67432 3.67543 2.49902 4.11745 2.49902C4.55948 2.49902 4.98331 2.67529 5.29572 2.98779C5.60812 3.30029 5.78351 3.72461 5.78328 4.1665ZM5.83328 7.06641L2.49995 7.06641L2.49995 17.5L5.83328 17.5L5.83328 7.06641ZM11.0999 7.06641L7.78328 7.06641L7.78328 17.5L11.0666 17.5L11.0666 12.0249C11.0666 8.9751 15.0416 8.69141 15.0416 12.0249L15.0416 17.5L18.3333 17.5L18.3333 10.8916C18.3333 5.75 12.45 5.94141 11.0666 8.46631L11.0999 7.06641Z" fill="#BDBDC0" fill-opacity="1.000000" fill-rule="nonzero"/>
</svg>

<svg width="20" height="20" fill="none" xmlns="http://www.w3.org/2000/svg"><path d="M5.783 4.167a1.667 1.667 0 1 1-3.334-.002 1.667 1.667 0 0 1 3.334.002Zm.05 2.9H2.5V17.5h3.333V7.066Zm5.267 0H7.783V17.5h3.284v-5.475c0-3.05 3.975-3.334 3.975 0V17.5h3.291v-6.608c0-5.142-5.883-4.95-7.266-2.426l.033-1.4Z" fill="#BDBDC0"/></svg>
